svg/logo/visa_line.svg

<?xml version="1.0" encoding="UTF-8"?>
<svg width="24px" height="24px" viewBox="0 0 24 24" version="1.1" xmlns="http://www.w3.org/2000/svg" xmlns:xlink="http://www.w3.org/1999/xlink">
    <title>visa_line</title>
    <g id="Icon" stroke="none" stroke-width="1" fill="none" fill-rule="evenodd">
        <g id="Logo" transform="translate(-192.000000, -192.000000)" fill-rule="nonzero">
            <g id="visa_line" transform="translate(192.000000, 192.000000)">
                <path d="M24,0 L24,24 L0,24 L0,0 L24,0 Z M12.5934901,23.257841 L12.5819402,23.2595131 L12.5108777,23.2950439 L12.4918791,23.2987469 L12.4918791,23.2987469 L12.4767152,23.2950439 L12.4056548,23.2595131 C12.3958229,23.2563662 12.3870493,23.2590235 12.3821421,23.2649074 L12.3780323,23.275831 L12.360941,23.7031097 L12.3658947,23.7234994 L12.3769048,23.7357139 L12.4804777,23.8096931 L12.4953491,23.8136134 L12.4953491,23.8136134 L12.5071152,23.8096931 L12.6106902,23.7357139 L12.6232938,23.7196733 L12.6232938,23.7196733 L12.6266527,23.7031097 L12.609561,23.275831 C12.6075724,23.2657013 12.6010112,23.2592993 12.5934901,23.257841 L12.5934901,23.257841 Z M12.8583906,23.1452862 L12.8445485,23.1473072 L12.6598443,23.2396597 L12.6498822,23.2499052 L12.6498822,23.2499052 L12.6471943,23.2611114 L12.6650943,23.6906389 L12.6699349,23.7034178 L12.6699349,23.7034178 L12.678386,23.7104931 L12.8793402,23.8032389 C12.8914285,23.8068999 12.9022333,23.8029875 12.9078286,23.7952264 L12.9118235,23.7811639 L12.8776777,23.1665331 C12.8752882,23.1545897 12.8674102,23.1470016 12.8583906,23.1452862 L12.8583906,23.1452862 Z M12.1430473,23.1473072 C12.1332178,23.1423925 12.1221763,23.1452606 12.1156365,23.1525954 L12.1099173,23.1665331 L12.0757714,23.7811639 C12.0751323,23.7926639 12.0828099,23.8018602 12.0926481,23.8045676 L12.108256,23.8032389 L12.3092106,23.7104931 L12.3186497,23.7024347 L12.3186497,23.7024347 L12.3225043,23.6906389 L12.340401,23.2611114 L12.337245,23.2485176 L12.337245,23.2485176 L12.3277531,23.2396597 L12.1430473,23.1473072 Z" id="MingCute"></path>
                <path d="M10.124,7.00775 C10.6721,7.07625 11.0608,7.57604 10.9923,8.12406 L9.99228,16.1241 C9.92378,16.6721 9.42399,17.0608 8.87597,16.9923 C8.32795,16.9238 7.93922,16.424 8.00772,15.876 L9.00772,7.87599 C9.07622,7.32797 9.57601,6.93925 10.124,7.00775 Z M4,7.00003 C4.55228,7.00003 5,7.44774 5,8.00003 L5,10.4854 L6.06367,7.6489 C6.25759,7.13178 6.834,6.86978 7.35112,7.0637 C7.86824,7.25762 8.13025,7.83403 7.93633,8.35115 L4.93633,16.3512 C4.76657,16.8038 4.29728,17.0702 3.82158,16.984 C3.34587,16.8977 3,16.4835 3,16 L3,9.00003 C2.44772,9.00003 2,8.55231 2,8.00003 C2,7.44774 2.44772,7.00003 3,7.00003 L4,7.00003 Z M14.5,7.00003 C15.0961,7.00003 15.6632,7.22196 16.0343,7.6964 C16.3968,8.15988 16.4713,8.73787 16.3427,9.24559 C16.2071,9.78096 15.6631,10.105 15.1278,9.96941 C14.712275,9.8641675 14.4240521,9.51304292 14.3792086,9.11084135 L14.3731,9.00003 L14.3242,9.00003 C14.1000222,9.00003 13.9070543,9.14838358 13.8449572,9.35708855 L13.828,9.43801 L13.7147,10.3449 C13.6757,10.6566 13.8489,10.9562 14.1385,11.0781 C15.199175,11.52422 15.854447,12.5891843 15.7878589,13.7249587 L15.7713,13.9048 L15.6572,14.8119 C15.5068348,16.0078391 14.527631,16.9178614 13.3398979,16.9947331 L13.1767,17 L13,17 C12.5283,17 11.8746,16.9147 11.4475,16.3705 C11.1139167,15.9454167 11.087,15.4421389 11.1139722,15.0759444 L11.1346,14.8744 L11.1346,14.8744 C11.204,14.3265 11.7044,13.9386 12.2523,14.008 C12.7191,14.0670769 13.0697627,14.4390343 13.1203981,14.8866556 L13.1267,15 L13.1767,15 C13.4007889,15 13.5936679,14.8518519 13.6558166,14.6432768 L13.6728,14.5624 L13.7869,13.6553 C13.8261,13.3434 13.6529,13.0435 13.3631,12.9216 C12.30309,12.475765 11.6478512,11.4116273 11.7136694,10.276535 L11.7301,10.0968 L11.8435,9.18994 C11.9930043,7.99326435 12.9725367,7.08225849 14.1609126,7.00530273 L14.3242,7.00003 L14.5,7.00003 Z M20.1169,7.00689 C20.5739,7.0607 20.9352,7.4194 20.9923,7.87599 L21.9923,15.876 C22.0608,16.424 21.6721,16.9238 21.124,16.9923 C20.576,17.0608 20.0762,16.6721 20.0077,16.1241 L19.8672,15 L18.443,15 L17.9363,16.3512 C17.7424,16.8683 17.166,17.1303 16.6489,16.9364 C16.1318,16.7424 15.8698,16.166 16.0637,15.6489 L19.0637,7.6489 C19.2252,7.21806 19.66,6.95308 20.1169,7.00689 Z M19.5112,12.1516 L19.193,13 L19.6172,13 L19.5112,12.1516 Z" id="形状" fill="#09244B"></path>
            </g>
        </g>
    </g>
</svg>

<svg xmlns="http://www.w3.org/2000/svg" width="24" height="24"><g fill="none" fill-rule="nonzero"><path d="M24 0v24H0V0h24ZM12.593 23.258l-.011.002-.071.035-.02.004-.014-.004-.071-.035c-.01-.004-.019-.001-.024.005l-.004.01-.017.428.005.02.01.013.104.074.015.004.012-.004.104-.074.012-.016.004-.017-.017-.427c-.002-.01-.009-.017-.017-.018Zm.265-.113-.013.002-.185.093-.01.01-.003.011.018.43.005.012.008.007.201.093c.012.004.023 0 .029-.008l.004-.014-.034-.614c-.003-.012-.01-.02-.02-.022Zm-.715.002a.023.023 0 0 0-.027.006l-.006.014-.034.614c0 .012.007.02.017.024l.015-.002.201-.093.01-.008.004-.011.017-.43-.003-.012-.01-.01-.184-.092Z"/><path fill="#09244B" d="M10.124 7.008a1 1 0 0 1 .868 1.116l-1 8a1 1 0 0 1-1.984-.248l1-8a1 1 0 0 1 1.116-.868ZM4 7a1 1 0 0 1 1 1v2.485L6.064 7.65a1 1 0 1 1 1.872.702l-3 8A1 1 0 0 1 3 16V9a1 1 0 0 1 0-2h1Zm10.5 0c.596 0 1.163.222 1.534.696.363.464.437 1.042.309 1.55a1 1 0 0 1-1.964-.135L14.373 9h-.049a.5.5 0 0 0-.479.357l-.017.081-.113.907a.701.701 0 0 0 .424.733 2.701 2.701 0 0 1 1.649 2.647l-.017.18-.114.907a2.5 2.5 0 0 1-2.317 2.183l-.163.005H13c-.472 0-1.125-.085-1.553-.63-.333-.425-.36-.928-.333-1.294l.02-.202a1 1 0 0 1 1.986.013l.007.113h.05a.5.5 0 0 0 .479-.357l.017-.08.114-.908a.701.701 0 0 0-.424-.733 2.701 2.701 0 0 1-1.65-2.645l.017-.18.114-.907a2.5 2.5 0 0 1 2.317-2.185L14.324 7h.176Zm5.617.007a1 1 0 0 1 .875.869l1 8a1 1 0 0 1-1.984.248L19.868 15h-1.425l-.507 1.351a1 1 0 1 1-1.872-.702l3-8a1 1 0 0 1 1.053-.642Zm-.606 5.145-.318.848h.424l-.106-.848Z"/></g></svg>
